X:1
T:James Gibb editions
T:Blw thy horn, hunter - Cornysh
T:#
%%score [ 1 2 3 ]
L:1/8
Q:1/4=120
M:4/4
K:C
V:1 treble nm="Alto" snm="Alto"
V:2 treble-8 nm="Tenor" snm="Tenor"
V:3 bass nm="Bass" snm="Bass"
V:1
"^William Cornysh\n(c.1465-1523)""^Blow thy horn, hunter" E2 (EE) E4 | (G2 G2) E2 E2 | G3 G A2 B2 | %3
w: ~Blow thy * horn,|hun\- * ter, And|blow thy horn on|
w: ~Sore thus the deer|stri- cken is, And|yet she bled no|
w: ~As I * stood|under a bank, The|deer shoff on the|
w: ~There she * go'th,|see ye not How|she go'th o'er the|
 c4 z2 G2 | A3 A A2 G2 | c3 c B2 B2 | A2 G2 A2 ^F2 | G4 z2 G2 | A2 G2 E4 | D4 E2 E2 | A3 G F2 EE | %11
w: high! There|is a doe in|yon- der wood, In|faith she will not|die. Now|blow thy horn,|hun- ter, now|blow thy horn, jol- ly|
w: whit; She|lay so fair I|could not miss; Lord|I was glad of|it! *||||
w: mead; I|struck her so that|down she sank, But|yet she was not|dead. *||||
w: plain? And|if ye lust to|have a shot, I'll|war- rant her bar-|rain. *||||
 D4 E8 |] E2 E2 E2 E2 | G2 G2 E2 E2 | (G2 G)G (AA) B2 | c4 z2 G2 | A3 A A2 G2 | c3 c B2 B2 | %18
w: hun- ter!|~He to go, and|I to go, But|he * ran fast * a-|fore; I|bade him shoot and|strike the doe, For|
w: |~To the co- vert|both they went, For|I * found where * she|lay; An|ar- row in her|haunch she hent, For|
w: |~I was wea- ry|of the game, And|went to the ta- vern to|drink; Now|the con- struc- tion|of the same, What|
w: |~Here I leave and|make an end Now|of * this hun\- * ter's|lore: I|think his bow is|well un- bent, His|
 A2 G2 A2 ^F2 | G4 z2 G2 | A2 G2 E4 | D4 E2 E2 | A3 G F2 EE | D4 E8 |] %24
w: I might shoot no|more. Now|blow thy horn,|hun- ter, now|blow thy horn, jol- ly|hun- ter!|
w: faint she might not|bray. *|||||
w: do you mean or|think? *|||||
w: bolt may flee no|more. *|||||
V:2
 c2 (cc) c4 | (e2 e2) c2 c2 | e2 e2 d2 d2 | c4 z2 c2 | c3 c c2 B2 | A3 A G2 G2 | c2 B2 A2 A2 | %7
w: ~Blow thy * horn,|hun\- * ter, And|blow thy horn on|high! There|is a doe in|yon- der wood, In|faith she will not|
w: ~Sore thus the deer|stri- cken is, And|yet she bled no|whit; She|lay so fair I|could not miss; Lord|I was glad of|
w: ~As I * stood|under a bank, The|deer shoff on the|mead; I|struck her so that|down she sank, But|yet she was not|
w: ~There she * go'th,|see ye not How|she go'th o'er the|plain? And|if ye lust to|have a shot, I'll|war- rant her bar-|
 G4 z2 G2 | c2 c2 c4 | B4 c2 c2 | c3 c d2 GA | (BcdB) c8 |] c2 c2 c2 c2 | e2 e2 c2 c2 | %14
w: die. Now|blow thy horn,|hun- ter, now|blow thy horn, jol- ly|hun\- * * * ter!|~He to go, and|I to go, But|
w: it! *|||||~To the co- vert|both they went, For|
w: dead. *|||||~I was wea- ry|of ~the game, And|
w: rain. *|||||~Here I leave and|make an end Now|
 e2 (ee) (dd) d2 | c4 z2 c2 | c3 c c2 B2 | A3 A G2 G2 | c2 B2 A2 A2 | G4 z2 G2 | c2 c2 c4 | %21
w: he ran * fast * a-|fore; I|bade him shoot and|strike the doe, For|I might shoot no|more. Now|blow thy horn,|
w: I found * where * she|lay; An|ar- row in her|haunch she hent, For|faint she might not|bray. *||
w: went to the ta- vern to|drink; Now|the con- struc- tion|of the same, What|do you mean or|think? *||
w: of this * hun\- * ter's|lore: I|think his bow is|well un- bent, His|bolt may flee no|more. *||
 B4 c2 c2 | c3 c d2 GA | (B c d B) c8 |] %24
w: hun- ter, now|blow thy horn, jol- ly|hun\- * * * ter!|
w: |||
w: |||
w: |||
V:3
 C,2 (C,C,) C,4 | (C,2 C,2) C,2 C,2 | C,2 E,2 F,2 G,2 | C,6 C,2 | C,3 C, C,2 D,2 | %5
w: ~Blow thy * horn,|hun\- * ter And|blow thy horn on|high! There|is a doe in|
w: ~Sore thus the deer|stri- cken is, And|yet she bled no|whit; She|lay so fair I|
w: ~As I * stood|under a bank, The|deer shoff on the|mead; I|struck her so that|
w: ~There she * go'th,|see ye not How|she go'th o'er the|plain? And|if ye lust to|
 E,2 F,2 G,2 G,,2 | A,,2 B,,2 C,2 D,2 | G,,2 G,,2 (G,4- | F,2 E,2 C,4 | G,4 C,2 C,2 | %10
w: yon- der wood, In|faith she will not|die. Now blow|* thy horn,|hun- ter, now|
w: could not miss; Lord|I was glad of|it! * *|||
w: down she sank, But|yet she was not|dead. * *|||
w: have a shot, I'll|war- rant her bar-|rain. * *|||
 F,3 E, D,2 C,C, | G,4 C,8 |] C,2 C,2 C,2 C,2 | C,2 C,2 C,2 C,2 | C,2 E,E,) (F,F,) G,2 | C,6 C,2 | %16
w: blow thy horn, jol- ly|hun- ter!|~He to go, and|I ~to go, But|he ran * fast * a-|fore; I|
w: ||~To the co- vert|both they went, ~For|I found * where * she|lay; An|
w: ||~I was wea- ry|of the game, And|went to the ta- vern to|drink; Now|
w: ||~Here I leave and|make an end Now|of this * hun\- * ter's|lore: I|
 C,3 C, C,2 D,2 | E,2 F,2 G,2 G,,2 | A,,2 B,,2 C,2 D,2 | G,,2 G,,2 G,4- | F,2 E,2 C,4 | %21
w: bade him shoot and|strike the doe, For|I might shoot no|more. Now blow|* thy horn,|
w: ar- row in her|haunch she hent, For|faint she might not|bray. * *||
w: the con- struc- tion|of the same, What|do you mean or|think? * *||
w: think his bow is|well un- bent, His|bolt may flee no|more. * *||
 G,4 C,2 C,2 | F,3 E, D,2 C,C, | G,4 C,8 |] %24
w: hun- ter, now|blow thy horn, jol- ly|hun- ter!|
w: |||
w: |||
w: |||

